; generated by Slic3r Prusa Edition 1.41.1-rc+linux64 on 2018-11-17 at 10:31:11

; 

; external perimeters extrusion width = 0.45mm
; perimeters extrusion width = 0.45mm
; infill extrusion width = 0.45mm
; solid infill extrusion width = 0.45mm
; top infill extrusion width = 0.40mm

M107
M190 S55 ; set bed temperature and wait for it to be reached
M104 S195 ; set temperature
G28 X0 Y0		;move X/Y to min endstops
G28 Z0			;move Z to min endstops
G1 Z15.0 F9000	;move the platform down 15mm
G1 F200 E33	;extrude 3mm of feed stock
G1 F9000
G5
; Filament gcode
M109 S195 ; set temperature and wait for it to be reached
G21 ; set units to millimeters
G90 ; use absolute coordinates
M83 ; use relative distances for extrusion
G1 E-5.00000 F4200.00000
G1 Z0.500 F9000.000
G1 X63.731 Y48.198
G1 Z0.280
G1 E5.00000 F4200.00000
G1 F5233.26
G1 X64.963 Y48.056 E0.05628
G1 X100.304 Y48.055 E1.60409
G1 X172.559 Y54.629 E3.29322
G1 X173.822 Y54.916 E0.05878
G1 X174.998 Y55.459 E0.05878
G1 X176.035 Y56.235 E0.05878
G1 X176.891 Y57.215 E0.05906
G1 X177.367 Y58.011 E0.04211
G1 X177.718 Y58.870 E0.04211
G1 X177.937 Y59.771 E0.04211
G1 X178.019 Y60.701 E0.04238
G1 X178.019 Y149.878 E4.04773
G1 X177.826 Y151.319 E0.06600
G1 X177.302 Y152.675 E0.06600
G1 X176.476 Y153.872 E0.06600
G1 X175.389 Y154.847 E0.06627
G1 X174.029 Y155.569 E0.06987
G1 X172.528 Y155.935 E0.07015
G1 X113.034 Y161.935 E2.71412
G1 X52.239 Y161.930 E2.75946
G1 X51.231 Y161.774 E0.04628
G1 X50.262 Y161.456 E0.04628
G1 X49.359 Y160.983 E0.04628
G1 X48.546 Y160.368 E0.04628
G1 X33.777 Y145.613 E0.94758
G1 X33.107 Y144.813 E0.04739
G1 X32.624 Y143.999 E0.04294
G1 X32.268 Y143.116 E0.04322
G1 X32.053 Y142.195 E0.04294
G1 X31.980 Y141.250 E0.04301
G1 X31.981 Y81.145 E2.72813
G1 X32.063 Y80.240 E0.04127
G1 X32.279 Y79.350 E0.04155
G1 X32.623 Y78.502 E0.04155
G1 X33.088 Y77.714 E0.04155
G1 X33.772 Y76.892 E0.04850
G1 X60.697 Y49.845 E1.73229
G1 X61.564 Y49.130 E0.05101
G1 X62.552 Y48.582 E0.05128
G1 X63.674 Y48.216 E0.05356
; PURGING FINISHED
G1 E-5.00000 F4200.00000
G1 Z0.780 F9000.000
G1 X65.278 Y54.475
G1 Z0.280
G1 E5.00000 F4200.00000
G1 F5233.26
G1 X68.072 Y54.475 E0.12685
G1 X68.072 Y66.975 E0.56737
G1 X97.278 Y66.975 E1.32562
G1 X97.278 Y54.475 E0.56737
G1 X100.072 Y54.475 E0.12685
G1 X100.072 Y66.975 E0.56737
G1 X112.454 Y66.975 E0.56199
G1 X112.530 Y68.285 E0.05958
G1 X112.674 Y69.307 E0.04682
G1 X112.886 Y70.307 E0.04639
G1 X113.020 Y70.809 E0.02359
G1 X113.171 Y71.302 E0.02342
G1 X113.522 Y72.266 E0.04656
G1 X113.940 Y73.205 E0.04665
G1 X114.422 Y74.111 E0.04656
G1 X114.969 Y74.986 E0.04683
G1 X115.571 Y75.816 E0.04656
G1 X116.231 Y76.602 E0.04656
G1 X116.584 Y76.980 E0.02351
G1 X117.321 Y77.692 E0.04647
G1 X117.710 Y78.030 E0.02342
G1 X118.111 Y78.355 E0.02342
G1 X118.941 Y78.958 E0.04656
G1 X119.811 Y79.501 E0.04656
G1 X120.262 Y79.751 E0.02342
G1 X120.725 Y79.987 E0.02359
G1 X121.659 Y80.403 E0.04639
G1 X122.623 Y80.754 E0.04656
G1 X123.116 Y80.905 E0.02342
G1 X123.615 Y81.038 E0.02342
G1 X124.618 Y81.251 E0.04656
G1 X125.636 Y81.395 E0.04665
G1 X126.950 Y81.471 E0.05975
G1 X126.950 Y141.029 E2.70331
G1 X125.636 Y141.105 E0.05975
G1 X124.618 Y141.249 E0.04665
G1 X123.615 Y141.462 E0.04656
G1 X123.116 Y141.595 E0.02342
G1 X122.623 Y141.746 E0.02342
G1 X121.659 Y142.097 E0.04656
G1 X120.720 Y142.515 E0.04665
G1 X119.814 Y142.997 E0.04656
G1 X118.939 Y143.544 E0.04683
G1 X118.109 Y144.146 E0.04656
G1 X117.323 Y144.806 E0.04656
G1 X116.945 Y145.159 E0.02351
G1 X116.236 Y145.893 E0.04630
G1 X115.895 Y146.285 E0.02359
G1 X115.570 Y146.686 E0.02342
G1 X114.967 Y147.516 E0.04656
G1 X114.424 Y148.386 E0.04656
G1 X114.174 Y148.837 E0.02342
G1 X113.939 Y149.297 E0.02342
G1 X113.524 Y150.230 E0.04639
G1 X113.171 Y151.200 E0.04683
G1 X112.889 Y152.182 E0.04639
G1 X112.772 Y152.688 E0.02359
G1 X112.673 Y153.195 E0.02342
G1 X112.530 Y154.211 E0.04656
G1 X112.454 Y155.525 E0.05975
G1 X52.896 Y155.525 E2.70332
G1 X52.820 Y154.211 E0.05975
G1 X52.676 Y153.193 E0.04665
G1 X52.463 Y152.190 E0.04656
G1 X52.330 Y151.691 E0.02342
G1 X52.179 Y151.198 E0.02342
G1 X51.828 Y150.234 E0.04656
G1 X51.411 Y149.297 E0.04656
G1 X51.176 Y148.837 E0.02342
G1 X50.926 Y148.386 E0.02342
G1 X50.383 Y147.516 E0.04656
G1 X49.780 Y146.686 E0.04656
G1 X49.455 Y146.285 E0.02342
G1 X49.117 Y145.896 E0.02342
G1 X48.405 Y145.159 E0.04647
G1 X48.027 Y144.806 E0.02351
G1 X47.241 Y144.146 E0.04656
G1 X46.411 Y143.544 E0.04656
G1 X45.536 Y142.997 E0.04683
G1 X44.630 Y142.515 E0.04656
G1 X43.691 Y142.097 E0.04665
G1 X42.727 Y141.746 E0.04656
G1 X42.234 Y141.595 E0.02342
G1 X41.735 Y141.462 E0.02342
G1 X40.732 Y141.249 E0.04656
G1 X39.714 Y141.105 E0.04665
G1 X38.400 Y141.029 E0.05975
G1 X38.400 Y81.471 E2.70331
G1 X39.714 Y81.395 E0.05975
G1 X40.732 Y81.251 E0.04665
G1 X41.735 Y81.038 E0.04656
G1 X42.234 Y80.905 E0.02342
G1 X42.727 Y80.754 E0.02342
G1 X43.691 Y80.403 E0.04656
G1 X44.628 Y79.986 E0.04656
G1 X45.088 Y79.751 E0.02342
G1 X45.539 Y79.501 E0.02342
G1 X46.409 Y78.958 E0.04656
G1 X47.239 Y78.355 E0.04656
G1 X47.640 Y78.030 E0.02342
G1 X48.029 Y77.692 E0.02342
G1 X48.751 Y76.996 E0.04549
G1 X49.454 Y76.217 E0.04763
G1 X49.780 Y75.814 E0.02352
G1 X50.383 Y74.984 E0.04656
G1 X50.926 Y74.114 E0.04656
G1 X51.176 Y73.663 E0.02342
G1 X51.411 Y73.203 E0.02342
G1 X51.828 Y72.266 E0.04656
G1 X52.179 Y71.302 E0.04656
G1 X52.330 Y70.809 E0.02342
G1 X52.463 Y70.310 E0.02342
G1 X52.676 Y69.307 E0.04656
G1 X52.820 Y68.289 E0.04665
G1 X52.896 Y66.975 E0.05975
G1 X65.278 Y66.975 E0.56199
G1 X65.278 Y54.535 E0.56465
G1 X65.561 Y54.757 F9000.000
G1 E-5.00000 F4200.00000
G1 Z0.780 F9000.000
G1 X65.668 Y54.865
G1 Z0.280
G1 E5.00000 F4200.00000
G1 F5233.26
G1 X67.682 Y54.865 E0.09146
G1 X67.682 Y67.365 E0.56737
G1 X97.668 Y67.365 E1.36102
G1 X97.668 Y54.865 E0.56737
G1 X99.682 Y54.865 E0.09146
G1 X99.682 Y67.365 E0.56737
G1 X112.075 Y67.365 E0.56249
G1 X112.142 Y68.326 E0.04374
G1 X112.289 Y69.375 E0.04806
G1 X112.507 Y70.398 E0.04747
G1 X112.801 Y71.426 E0.04855
G1 X113.160 Y72.412 E0.04764
G1 X113.589 Y73.376 E0.04789
G1 X114.082 Y74.303 E0.04764
G1 X114.647 Y75.207 E0.04837
G1 X115.264 Y76.056 E0.04764
G1 X115.939 Y76.860 E0.04765
G1 X116.306 Y77.254 E0.02443
G1 X117.057 Y77.979 E0.04740
G1 X117.459 Y78.329 E0.02419
G1 X117.873 Y78.664 E0.02419
G1 X118.723 Y79.281 E0.04764
G1 X119.613 Y79.837 E0.04765
G1 X120.557 Y80.339 E0.04855
G1 X121.513 Y80.765 E0.04747
G1 X122.499 Y81.124 E0.04764
G1 X123.523 Y81.417 E0.04837
G1 X124.550 Y81.636 E0.04765
G1 X125.595 Y81.783 E0.04789
G1 X126.560 Y81.850 E0.04391
G1 X126.560 Y140.650 E2.66892
G1 X125.595 Y140.717 E0.04391
G1 X124.550 Y140.864 E0.04789
G1 X123.523 Y141.083 E0.04765
G1 X122.499 Y141.376 E0.04837
G1 X121.513 Y141.735 E0.04764
G1 X120.549 Y142.164 E0.04789
G1 X119.622 Y142.657 E0.04764
G1 X118.718 Y143.222 E0.04837
G1 X117.869 Y143.839 E0.04764
G1 X117.065 Y144.514 E0.04765
G1 X116.671 Y144.881 E0.02443
G1 X115.949 Y145.629 E0.04722
G1 X115.596 Y146.034 E0.02436
G1 X115.261 Y146.448 E0.02420
G1 X114.644 Y147.298 E0.04764
G1 X114.088 Y148.188 E0.04765
G1 X113.587 Y149.129 E0.04837
G1 X113.162 Y150.084 E0.04747
G1 X112.800 Y151.079 E0.04806
G1 X112.511 Y152.084 E0.04747
G1 X112.289 Y153.131 E0.04855
G1 X112.142 Y154.170 E0.04764
G1 X112.075 Y155.135 E0.04391
G1 X53.275 Y155.135 E2.66892
G1 X53.208 Y154.170 E0.04391
G1 X53.061 Y153.125 E0.04789
G1 X52.842 Y152.098 E0.04765
G1 X52.549 Y151.074 E0.04837
G1 X52.190 Y150.088 E0.04765
G1 X51.763 Y149.129 E0.04765
G1 X51.262 Y148.188 E0.04837
G1 X50.706 Y147.298 E0.04765
G1 X50.089 Y146.448 E0.04764
G1 X49.754 Y146.034 E0.02419
G1 X49.404 Y145.632 E0.02419
G1 X48.679 Y144.881 E0.04740
G1 X48.285 Y144.514 E0.02443
G1 X47.481 Y143.839 E0.04765
G1 X46.632 Y143.222 E0.04764
G1 X45.728 Y142.657 E0.04837
G1 X44.801 Y142.164 E0.04764
G1 X43.837 Y141.735 E0.04789
G1 X42.851 Y141.376 E0.04764
G1 X41.827 Y141.083 E0.04837
G1 X40.800 Y140.864 E0.04764
G1 X39.755 Y140.717 E0.04789
G1 X38.790 Y140.650 E0.04391
G1 X38.790 Y81.850 E2.66892
G1 X39.755 Y81.783 E0.04391
G1 X40.800 Y81.636 E0.04789
G1 X41.827 Y81.417 E0.04765
G1 X42.851 Y81.124 E0.04837
G1 X43.837 Y80.765 E0.04764
G1 X44.796 Y80.338 E0.04765
G1 X45.737 Y79.837 E0.04837
G1 X46.627 Y79.281 E0.04765
G1 X47.477 Y78.664 E0.04764
G1 X47.891 Y78.329 E0.02419
G1 X48.293 Y77.979 E0.02418
G1 X49.031 Y77.267 E0.04656
G1 X49.750 Y76.470 E0.04872
G1 X50.089 Y76.052 E0.02445
G1 X50.706 Y75.202 E0.04764
G1 X51.262 Y74.312 E0.04765
G1 X51.521 Y73.846 E0.02419
G1 X51.763 Y73.371 E0.02419
G1 X52.190 Y72.412 E0.04765
G1 X52.549 Y71.426 E0.04764
G1 X52.842 Y70.402 E0.04837
G1 X53.061 Y69.375 E0.04765
G1 X53.208 Y68.330 E0.04789
G1 X53.275 Y67.365 E0.04391
G1 X65.668 Y67.365 E0.56249
G1 X65.668 Y54.925 E0.56465
G1 E-5.00000 F4200.00000
G1 Z0.780 F9000.000
G1 X66.675 Y55.872
G1 X66.675 Y83.450
G1 X65.575 Y85.389
G1 X65.558 Y89.784
G1 X71.476 Y89.685
G1 X77.212 Y88.899
G1 X80.619 Y87.991
G1 X87.967 Y85.220
G1 X94.634 Y83.178
G1 X97.952 Y82.284
G1 X99.297 Y82.734
G1 X100.876 Y83.349
G1 X105.265 Y88.278
G1 X107.992 Y90.865
G1 X110.576 Y93.049
G1 X111.838 Y96.095
G1 X111.331 Y99.973
G1 X111.178 Y103.319
G1 X117.935 Y110.050
G1 Z0.280
G1 E5.00000 F4200.00000
G1 F5233.26
G1 X118.208 Y109.820 E0.01620
G1 X118.475 Y109.672 E0.01384
G1 X118.816 Y109.562 E0.01628
G1 X119.168 Y109.524 E0.01607
G1 X119.476 Y109.550 E0.01406
G1 X119.820 Y109.649 E0.01621
G1 X120.091 Y109.787 E0.01384
G1 X120.374 Y110.008 E0.01629
G1 X120.606 Y110.285 E0.01638
G1 X120.776 Y110.603 E0.01638
G1 X120.874 Y110.948 E0.01629
G1 X120.901 Y111.250 E0.01374
G1 X120.874 Y111.552 E0.01374
G1 X120.776 Y111.897 E0.01629
G1 X120.606 Y112.215 E0.01638
G1 X120.374 Y112.492 E0.01638
G1 X120.091 Y112.713 E0.01629
G1 X119.822 Y112.850 E0.01375
G1 X119.532 Y112.939 E0.01374
G1 X119.175 Y112.976 E0.01629
G1 X118.818 Y112.939 E0.01629
G1 X118.528 Y112.850 E0.01374
G1 X118.259 Y112.713 E0.01375
G1 X117.976 Y112.492 E0.01629
G1 X117.744 Y112.215 E0.01638
G1 X117.574 Y111.897 E0.01638
G1 X117.476 Y111.552 E0.01629
G1 X117.449 Y111.250 E0.01374
G1 X117.476 Y110.948 E0.01374
G1 X117.574 Y110.603 E0.01629
G1 X117.743 Y110.286 E0.01629
G1 X117.897 Y110.096 E0.01111
G1 X117.839 Y109.706 F9000.000
G1 E-5.00000 F4200.00000
G1 Z0.780 F9000.000
G1 X117.655 Y109.775
G1 Z0.280
G1 E5.00000 F4200.00000
G1 F5233.26
G1 X117.986 Y109.497 E0.01961
G1 X118.319 Y109.313 E0.01724
G1 X118.734 Y109.178 E0.01983
G1 X119.164 Y109.132 E0.01962
G1 X119.548 Y109.165 E0.01748
G1 X119.963 Y109.284 E0.01963
G1 X120.302 Y109.457 E0.01724
G1 X120.646 Y109.726 E0.01985
G1 X120.931 Y110.065 E0.02010
G1 X121.139 Y110.457 E0.02010
G1 X121.260 Y110.877 E0.01985
G1 X121.292 Y111.250 E0.01700
G1 X121.260 Y111.623 E0.01700
G1 X121.139 Y112.043 E0.01985
G1 X120.931 Y112.435 E0.02010
G1 X120.646 Y112.774 E0.02010
G1 X120.302 Y113.043 E0.01985
G1 X119.968 Y113.213 E0.01700
G1 X119.610 Y113.323 E0.01700
G1 X119.175 Y113.368 E0.01986
G1 X118.740 Y113.323 E0.01986
G1 X118.382 Y113.213 E0.01700
G1 X118.048 Y113.043 E0.01700
G1 X117.704 Y112.774 E0.01985
G1 X117.419 Y112.435 E0.02010
G1 X117.211 Y112.043 E0.02010
G1 X117.090 Y111.623 E0.01985
G1 X117.058 Y111.250 E0.01700
G1 X117.090 Y110.877 E0.01700
G1 X117.211 Y110.457 E0.01985
G1 X117.416 Y110.070 E0.01986
G1 X117.618 Y109.822 E0.01452
G1 E-5.00000 F4200.00000
G1 Z0.780 F9000.000
G1 X83.917 Y75.949
G1 Z0.280
G1 E5.00000 F4200.00000
G1 F5233.26
G1 X83.640 Y76.181 E0.01637
G1 X83.322 Y76.351 E0.01638
G1 X82.977 Y76.449 E0.01629
G1 X82.675 Y76.476 E0.01374
G1 X82.373 Y76.449 E0.01374
G1 X82.028 Y76.351 E0.01629
G1 X81.710 Y76.181 E0.01638
G1 X81.433 Y75.949 E0.01638
G1 X81.212 Y75.666 E0.01629
G1 X81.074 Y75.395 E0.01384
G1 X80.976 Y75.052 E0.01620
G1 X80.949 Y74.750 E0.01376
G1 X80.977 Y74.443 E0.01397
G1 X81.074 Y74.105 E0.01598
G1 X81.212 Y73.834 E0.01383
G1 X81.433 Y73.551 E0.01629
G1 X81.708 Y73.320 E0.01629
G1 X81.975 Y73.172 E0.01383
G1 X82.316 Y73.062 E0.01628
G1 X82.668 Y73.024 E0.01607
G1 X82.976 Y73.050 E0.01405
G1 X83.322 Y73.149 E0.01630
G1 X83.639 Y73.318 E0.01629
G1 X83.875 Y73.510 E0.01384
G1 X84.106 Y73.785 E0.01629
G1 X84.276 Y74.103 E0.01638
G1 X84.374 Y74.448 E0.01629
G1 X84.401 Y74.750 E0.01376
G1 X84.373 Y75.057 E0.01397
G1 X84.276 Y75.395 E0.01598
G1 X84.135 Y75.671 E0.01405
G1 X83.954 Y75.902 E0.01334
G1 X84.014 Y76.297 F9000.000
G1 E-5.00000 F4200.00000
G1 Z0.780 F9000.000
G1 X84.198 Y76.222
G1 Z0.280
G1 E5.00000 F4200.00000
G1 F5233.26
G1 X83.860 Y76.506 E0.02008
G1 X83.468 Y76.714 E0.02010
G1 X83.048 Y76.835 E0.01985
G1 X82.675 Y76.867 E0.01700
G1 X82.302 Y76.835 E0.01700
G1 X81.882 Y76.714 E0.01985
G1 X81.490 Y76.506 E0.02010
G1 X81.151 Y76.221 E0.02010
G1 X80.882 Y75.877 E0.01985
G1 X80.709 Y75.538 E0.01724
G1 X80.590 Y75.123 E0.01961
G1 X80.558 Y74.749 E0.01702
G1 X80.591 Y74.371 E0.01723
G1 X80.710 Y73.961 E0.01937
G1 X80.882 Y73.623 E0.01723
G1 X81.151 Y73.279 E0.01985
G1 X81.486 Y72.997 E0.01986
G1 X81.819 Y72.813 E0.01724
G1 X82.234 Y72.678 E0.01983
G1 X82.664 Y72.632 E0.01962
G1 X83.047 Y72.665 E0.01747
G1 X83.468 Y72.786 E0.01988
G1 X83.855 Y72.991 E0.01986
G1 X84.150 Y73.230 E0.01724
G1 X84.431 Y73.565 E0.01985
G1 X84.639 Y73.956 E0.02010
G1 X84.760 Y74.377 E0.01985
G1 X84.792 Y74.751 E0.01702
G1 X84.759 Y75.129 E0.01723
G1 X84.640 Y75.539 E0.01939
G1 X84.465 Y75.882 E0.01746
G1 X84.235 Y76.175 E0.01689
G1 E-5.00000 F4200.00000
G1 Z0.780 F9000.000
G1 X47.374 Y110.008
G1 Z0.280
G1 E5.00000 F4200.00000
G1 F5233.26
G1 X47.606 Y110.285 E0.01638
G1 X47.776 Y110.603 E0.01638
G1 X47.874 Y110.948 E0.01629
G1 X47.901 Y111.250 E0.01374
G1 X47.874 Y111.552 E0.01374
G1 X47.776 Y111.897 E0.01629
G1 X47.606 Y112.215 E0.01638
G1 X47.374 Y112.492 E0.01638
G1 X47.091 Y112.713 E0.01629
G1 X46.820 Y112.851 E0.01384
G1 X46.477 Y112.949 E0.01620
G1 X46.173 Y112.976 E0.01383
G1 X45.823 Y112.940 E0.01598
G1 X45.529 Y112.850 E0.01396
G1 X45.259 Y112.713 E0.01376
G1 X44.976 Y112.492 E0.01629
G1 X44.744 Y112.215 E0.01638
G1 X44.574 Y111.897 E0.01638
G1 X44.476 Y111.552 E0.01629
G1 X44.449 Y111.250 E0.01374
G1 X44.476 Y110.948 E0.01374
G1 X44.574 Y110.603 E0.01629
G1 X44.743 Y110.286 E0.01629
G1 X44.935 Y110.050 E0.01384
G1 X45.208 Y109.820 E0.01620
G1 X45.475 Y109.672 E0.01384
G1 X45.816 Y109.562 E0.01628
G1 X46.168 Y109.524 E0.01607
G1 X46.476 Y109.550 E0.01406
G1 X46.820 Y109.649 E0.01621
G1 X47.091 Y109.787 E0.01384
G1 X47.327 Y109.971 E0.01357
G1 X47.722 Y109.911 F9000.000
G1 E-5.00000 F4200.00000
G1 Z0.780 F9000.000
G1 X47.646 Y109.726
G1 Z0.280
G1 E5.00000 F4200.00000
G1 F5233.26
G1 X47.931 Y110.065 E0.02010
G1 X48.139 Y110.457 E0.02010
G1 X48.260 Y110.877 E0.01985
G1 X48.292 Y111.250 E0.01700
G1 X48.260 Y111.623 E0.01700
G1 X48.139 Y112.043 E0.01985
G1 X47.931 Y112.435 E0.02010
G1 X47.646 Y112.774 E0.02010
G1 X47.302 Y113.043 E0.01985
G1 X46.963 Y113.216 E0.01724
G1 X46.548 Y113.335 E0.01961
G1 X46.170 Y113.368 E0.01723
G1 X45.746 Y113.324 E0.01937
G1 X45.382 Y113.213 E0.01723
G1 X45.048 Y113.043 E0.01702
G1 X44.704 Y112.774 E0.01985
G1 X44.419 Y112.435 E0.02010
G1 X44.211 Y112.043 E0.02010
G1 X44.090 Y111.623 E0.01985
G1 X44.058 Y111.250 E0.01700
G1 X44.090 Y110.877 E0.01700
G1 X44.211 Y110.457 E0.01985
G1 X44.416 Y110.070 E0.01986
G1 X44.655 Y109.775 E0.01724
G1 X44.986 Y109.497 E0.01961
G1 X45.319 Y109.313 E0.01724
G1 X45.734 Y109.178 E0.01983
G1 X46.164 Y109.132 E0.01962
G1 X46.548 Y109.165 E0.01748
G1 X46.963 Y109.284 E0.01963
G1 X47.302 Y109.457 E0.01724
G1 X47.599 Y109.689 E0.01713
G1 E-5.00000 F4200.00000
G1 Z0.780 F9000.000
G1 X66.801 Y118.321
G1 Z0.280
G1 E5.00000 F4200.00000
G1 F5233.26
G1 X89.746 Y95.376 E1.47290
G1 X118.349 Y123.978 E1.83601
G1 X95.403 Y146.924 E1.47290
G1 X66.843 Y118.363 E1.83329
G1 X66.462 Y118.109 F9000.000
G1 E-5.00000 F4200.00000
G1 Z0.780 F9000.000
G1 X89.746 Y94.824
G1 Z0.280
G1 E5.00000 F4200.00000
G1 F5233.26
G1 X118.900 Y123.978 E1.87141
G1 X95.403 Y147.475 E1.50829
G1 X66.249 Y118.321 E1.87141
G1 X89.704 Y94.867 E1.50557
G1 E-5.00000 F4200.00000
G1 Z0.780 F9000.000
G1 X89.746 Y94.280
G1 X82.692 Y87.226
G1 X79.059 Y88.456
G1 X75.221 Y89.265
G1 X70.610 Y89.739
G1 X65.558 Y89.784
