;FLAVOR:Marlin
;TIME:3093
;Filament used: 3.16301m
;Layer height: 0.2
;Generated with Cura_SteamEngine 3.5.1
M140 S60
M105
M190 S60
M104 S200
M105
M109 S200
M82 ;absolute extrusion mode
G21 ;metric values
G90 ;absolute positioning
M82 ;set extruder to absolute mode
M107 ;start with the fan off
G28 X0 Y0 ;move X/Y to min endstops
G28 Z0 ;move Z to min endstops
G1 Z15.0 F100 ;move the platform down 15mm
G92 E0 ;zero the extruded length
G1 F200 E3 ;extrude 3mm of feed stock
G92 E0 ;zero the extruded length again
G1 F100
M117 Printing...
G5
G92 E0
G1 F4200 E-5
;LAYER_COUNT:121
;LAYER:0
M106 S255
M204 S3000
M205 X10 Y10
G0 F3000 X89.852 Y83.142 Z0.2
M204 S1800
M205 X8 Y8
;TYPE:SKIRT
G1 F4200 E0
G1 F2400 X90.797 Y82.205 E0.06197
G1 X91.31 Y81.753 E0.0938
G1 X91.845 Y81.381 E0.12415
G1 X93.039 Y80.645 E0.18946
G1 X93.64 Y80.321 E0.22125
G1 X94.25 Y80.078 E0.25183
G1 X95.52 Y79.653 E0.31419
G1 X96.179 Y79.474 E0.34598
G1 X96.594 Y79.403 E0.36559
G1 X97.478 Y79.284 E0.40712
G1 X98.469 Y79.236 E0.45332
G1 X101.571 Y79.349 E0.59786
G1 X107.02 Y79.388 E0.85159
G1 X111.151 Y79.221 E1.04411
G1 X112.065 Y79.256 E1.0867
G1 X113.408 Y79.413 E1.14966
G1 X114.081 Y79.531 E1.18148
G1 X114.699 Y79.715 E1.2115
G1 X115.992 Y80.178 E1.27545
G1 X116.62 Y80.445 E1.30723
G1 X117.021 Y80.664 E1.3285
G1 X117.81 Y81.136 E1.37131
G1 X118.542 Y81.654 E1.41307
G1 X119.319 Y82.299 E1.46009
G1 X119.926 Y82.882 E1.49928
G1 X120.357 Y83.36 E1.52925
G1 X120.748 Y83.844 E1.55822
G1 X122.352 Y86.057 E1.68549
G1 X125.699 Y90.317 E1.93776
G1 X128.483 Y93.54 E2.13607
G1 X128.898 Y94.082 E2.16786
G1 X129.124 Y94.443 E2.18769
G1 X129.898 Y95.787 E2.25991
G1 X130.204 Y96.398 E2.29172
G1 X130.392 Y96.899 E2.31664
G1 X130.709 Y97.876 E2.36447
G1 X130.881 Y98.537 E2.39627
G1 X130.956 Y99.009 E2.41853
G1 X131.105 Y100.301 E2.47909
G1 X131.143 Y100.983 E2.51089
G1 X131.111 Y101.584 E2.53892
G1 X130.971 Y102.909 E2.60096
G1 X130.809 Y103.788 E2.64258
G1 X129.404 Y109.103 E2.89857
G1 X127.961 Y116.221 E3.23675
G1 X127.786 Y116.882 E3.26859
G1 X127.648 Y117.257 E3.2872
G1 X127.155 Y118.472 E3.34826
G1 X126.862 Y119.089 E3.38006
G1 X126.623 Y119.486 E3.40164
G1 X126.042 Y120.369 E3.45086
G1 X125.51 Y121.059 E3.49143
G1 X125.038 Y121.585 E3.52433
G1 X124.46 Y122.146 E3.56184
G1 X123.776 Y122.724 E3.60354
G1 X123.037 Y123.256 E3.64594
G1 X122.134 Y123.804 E3.69512
G1 X121.39 Y124.185 E3.73405
G1 X118.877 Y125.254 E3.86121
G1 X113.973 Y127.572 E4.11379
G1 X110.238 Y129.555 E4.31069
G1 X109.375 Y129.928 E4.35447
G1 X108.198 Y130.327 E4.41234
G1 X107.539 Y130.508 E4.44416
G1 X106.971 Y130.6 E4.47096
G1 X105.645 Y130.748 E4.53308
G1 X104.654 Y130.774 E4.57925
G1 X103.958 Y130.733 E4.61171
G1 X103.279 Y130.653 E4.64355
G1 X102.851 Y130.56 E4.66394
G1 X101.325 Y130.169 E4.73729
G1 X100.675 Y129.961 E4.76907
G1 X100.056 Y129.68 E4.80073
G1 X97.28 Y128.22 E4.94678
G1 X92.403 Y125.827 E5.19973
G1 X88.493 Y124.129 E5.39823
G1 X87.621 Y123.658 E5.44437
G1 X86.512 Y122.932 E5.5061
G1 X85.964 Y122.525 E5.53788
G1 X85.448 Y122.037 E5.57095
G1 X84.407 Y120.925 E5.64188
G1 X83.97 Y120.4 E5.67369
G1 X83.666 Y119.944 E5.69921
G1 X83.13 Y119.053 E5.74762
G1 X82.681 Y118.133 E5.79529
G1 X82.328 Y117.212 E5.84122
G1 X82.051 Y116.252 E5.88774
G1 X80.915 Y110.495 E6.16098
G1 X80.309 Y107.917 E6.2843
G1 X79.181 Y103.731 E6.48617
G1 X79.042 Y103.062 E6.51799
G1 X78.997 Y102.663 E6.53668
G1 X78.883 Y101.19 E6.60548
G1 X78.871 Y100.507 E6.63728
G1 X78.916 Y99.975 E6.66215
G1 X79.057 Y98.907 E6.71231
G1 X79.186 Y98.236 E6.74412
G1 X79.334 Y97.744 E6.76805
G1 X79.771 Y96.494 E6.82971
G1 X80.034 Y95.863 E6.86154
G1 X80.333 Y95.324 E6.89024
G1 X81.046 Y94.184 E6.95285
G1 X81.561 Y93.483 E6.99335
G1 X85.023 Y89.439 E7.24124
G1 X89.303 Y83.77 E7.57199
G1 X89.852 Y83.142 E7.61084
M204 S3000
M205 X10 Y10
G0 F3000 X90.246 Y83.54
M204 S1800
M205 X8 Y8
G1 F2400 X91.191 Y82.603 E7.6728
G1 X91.68 Y82.174 E7.70309
G1 X92.138 Y81.857 E7.72903
G1 X93.332 Y81.121 E7.79434
G1 X93.905 Y80.815 E7.82459
G1 X94.427 Y80.609 E7.85072
G1 X95.697 Y80.184 E7.91308
G1 X96.325 Y80.016 E7.94335
G1 X96.669 Y79.958 E7.95959
G1 X97.553 Y79.839 E8.00113
G1 X98.448 Y79.795 E8.04285
G1 X101.58 Y79.909 E8.18879
G1 X107.018 Y79.948 E8.44201
G1 X111.174 Y79.78 E8.63569
G1 X112 Y79.812 E8.67418
G1 X113.343 Y79.969 E8.73714
G1 X113.982 Y80.084 E8.76737
G1 X114.51 Y80.242 E8.79304
G1 X115.803 Y80.705 E8.85699
G1 X116.4 Y80.961 E8.88724
G1 X116.734 Y81.145 E8.90499
G1 X117.523 Y81.617 E8.9478
G1 X118.184 Y82.085 E8.98552
G1 X118.961 Y82.73 E9.03254
G1 X119.51 Y83.257 E9.06797
G1 X119.941 Y83.735 E9.09794
G1 X120.295 Y84.172 E9.12413
G1 X121.913 Y86.404 E9.2525
G1 X125.272 Y90.679 E9.50566
G1 X128.059 Y93.906 E9.7042
G1 X128.453 Y94.423 E9.73447
G1 X128.638 Y94.722 E9.75084
G1 X129.412 Y96.066 E9.82306
G1 X129.701 Y96.648 E9.85332
G1 X129.859 Y97.071 E9.87434
G1 X130.176 Y98.048 E9.92217
G1 X130.338 Y98.678 E9.95246
G1 X130.399 Y99.073 E9.97107
G1 X130.548 Y100.365 E10.03163
G1 X130.583 Y101.014 E10.0619
G1 X130.554 Y101.525 E10.08573
G1 X130.414 Y102.85 E10.14777
G1 X130.268 Y103.644 E10.18536
G1 X128.857 Y108.98 E10.44237
G1 X127.412 Y116.11 E10.78112
G1 X127.244 Y116.738 E10.81139
G1 X127.13 Y117.046 E10.82668
G1 X126.637 Y118.261 E10.88774
G1 X126.356 Y118.847 E10.918
G1 X126.155 Y119.178 E10.93603
G1 X125.574 Y120.061 E10.98525
G1 X125.093 Y120.685 E11.02194
G1 X124.621 Y121.211 E11.05484
G1 X124.099 Y121.718 E11.08873
G1 X123.415 Y122.296 E11.13043
G1 X122.746 Y122.777 E11.16879
G1 X121.843 Y123.325 E11.21798
G1 X121.17 Y123.67 E11.25319
G1 X118.637 Y124.747 E11.38136
G1 X113.739 Y127.063 E11.63364
G1 X109.975 Y129.061 E11.83207
G1 X109.195 Y129.397 E11.87162
G1 X108.018 Y129.796 E11.92949
G1 X107.391 Y129.967 E11.95975
G1 X106.909 Y130.043 E11.98247
G1 X105.583 Y130.191 E12.0446
G1 X104.687 Y130.215 E12.08634
G1 X103.991 Y130.174 E12.1188
G1 X103.346 Y130.096 E12.14905
G1 X102.99 Y130.018 E12.16602
G1 X101.464 Y129.627 E12.23938
G1 X100.846 Y129.427 E12.26962
G1 X100.317 Y129.185 E12.29671
G1 X97.509 Y127.708 E12.44445
G1 X92.632 Y125.315 E12.6974
G1 X88.717 Y123.615 E12.89615
G1 X87.928 Y123.19 E12.93788
G1 X86.819 Y122.464 E12.9996
G1 X86.298 Y122.075 E13.02988
G1 X85.856 Y121.654 E13.0583
G1 X84.815 Y120.542 E13.12923
G1 X84.402 Y120.042 E13.15942
G1 X84.146 Y119.656 E13.18099
G1 X83.61 Y118.765 E13.22941
G1 X83.204 Y117.933 E13.27252
G1 X82.851 Y117.012 E13.31844
G1 X82.601 Y116.144 E13.36051
G1 X81.467 Y110.395 E13.63336
G1 X80.85 Y107.772 E13.75883
G1 X79.722 Y103.586 E13.9607
G1 X79.592 Y102.949 E13.99098
G1 X79.556 Y102.619 E14.00643
G1 X79.442 Y101.146 E14.07523
G1 X79.432 Y100.497 E14.10545
G1 X79.471 Y100.048 E14.12644
G1 X79.612 Y98.98 E14.1766
G1 X79.737 Y98.342 E14.20687
G1 X79.863 Y97.929 E14.22698
G1 X80.3 Y96.679 E14.28864
G1 X80.552 Y96.08 E14.3189
G1 X80.807 Y95.621 E14.34335
G1 X81.52 Y94.481 E14.40596
G1 X81.986 Y93.847 E14.4426
G1 X85.468 Y89.78 E14.6919
G1 X89.75 Y84.108 E15.02282
G1 X90.246 Y83.54 E15.05794
M204 S3000
M205 X10 Y10
G1 F4200 E10.05794
G0 F3000 X93.062 Y87.388
G0 X94.299 Y88.277
G0 X98.59 Y97.863
G0 X98.66 Y97.933
M204 S1800
M205 X8 Y8
;TYPE:WALL-INNER
G1 F4200 E15.05794
G1 F1500 X98.66 Y110.613 E15.64837
G1 X111.34 Y110.613 E16.2388
G1 X111.34 Y97.933 E16.82924
G1 X98.66 Y97.933 E17.41967
M204 S3000
M205 X10 Y10
G0 F3000 X98.59 Y97.863
G0 X111.368 Y97.905
G0 X118.689 Y106.138
G0 X118.754 Y106.213
M204 S1800
M205 X8 Y8
G1 F1500 X118.234 Y108.492 E17.52852
G1 X119.306 Y109.111 E17.58616
G1 X119.763 Y109.449 E17.61263
G1 X120.184 Y109.839 E17.63935
G1 X120.561 Y110.274 E17.66615
G1 X120.881 Y110.738 E17.6924
G1 X121.156 Y111.253 E17.71958
G1 X121.366 Y111.776 E17.74583
G1 X121.521 Y112.338 E17.77297
G1 X121.609 Y112.89 E17.799
G1 X121.637 Y113.468 E17.82595
G1 X121.601 Y114.029 E17.85212
G1 X121.501 Y114.598 E17.87902
G1 X121.336 Y115.164 E17.90648
G1 X121.125 Y115.668 E17.93192
G1 X120.838 Y116.186 E17.95949
G1 X120.52 Y116.632 E17.985
G1 X120.125 Y117.075 E18.01264
G1 X119.708 Y117.449 E18.03872
G1 X119.24 Y117.784 E18.06552
G1 X118.737 Y118.064 E18.09233
G1 X118.214 Y118.284 E18.11875
G1 X117.664 Y118.448 E18.14547
G1 X117.101 Y118.548 E18.1721
G1 X116.531 Y118.585 E18.19869
G1 X115.962 Y118.56 E18.22521
G1 X115.393 Y118.47 E18.25204
G1 X114.843 Y118.319 E18.2786
G1 X114.314 Y118.109 E18.3051
G1 X113.809 Y117.84 E18.33174
G1 X113.327 Y117.511 E18.35892
G1 X112.902 Y117.146 E18.385
G1 X112.057 Y116.236 E18.44283
G1 X109.955 Y117.249 E18.55148
G1 X110.135 Y118.465 E18.60872
G1 X110.158 Y119.058 E18.63635
G1 X110.117 Y119.611 E18.66217
G1 X110.013 Y120.176 E18.68892
G1 X109.843 Y120.731 E18.71595
G1 X109.62 Y121.248 E18.74217
G1 X109.335 Y121.749 E18.76901
G1 X109.001 Y122.211 E18.79555
G1 X108.616 Y122.633 E18.82215
G1 X108.179 Y123.018 E18.84927
G1 X107.724 Y123.335 E18.87509
G1 X107.208 Y123.617 E18.90247
G1 X106.692 Y123.827 E18.92841
G1 X106.127 Y123.988 E18.95577
G1 X105.578 Y124.081 E18.9817
G1 X105 Y124.112 E19.00865
G1 X104.422 Y124.081 E19.0356
G1 X103.873 Y123.988 E19.06153
G1 X103.308 Y123.827 E19.08889
G1 X102.792 Y123.617 E19.11483
G1 X102.276 Y123.335 E19.14221
G1 X101.821 Y123.018 E19.16803
G1 X101.384 Y122.633 E19.19515
G1 X100.999 Y122.211 E19.22175
G1 X100.665 Y121.749 E19.2483
G1 X100.38 Y121.248 E19.27513
G1 X100.157 Y120.731 E19.30135
G1 X99.987 Y120.176 E19.32838
G1 X99.883 Y119.611 E19.35513
G1 X99.842 Y119.058 E19.38095
G1 X99.865 Y118.465 E19.40859
G1 X100.045 Y117.249 E19.46582
G1 X97.943 Y116.236 E19.57448
G1 X97.098 Y117.146 E19.6323
G1 X96.673 Y117.511 E19.65839
G1 X96.191 Y117.84 E19.68556
G1 X95.686 Y118.109 E19.7122
G1 X95.157 Y118.319 E19.73871
G1 X94.607 Y118.47 E19.76526
G1 X94.038 Y118.56 E19.79209
G1 X93.469 Y118.585 E19.81861
G1 X92.899 Y118.548 E19.84521
G1 X92.336 Y118.448 E19.87183
G1 X91.786 Y118.284 E19.89856
G1 X91.263 Y118.064 E19.92498
G1 X90.76 Y117.784 E19.95178
G1 X90.292 Y117.449 E19.97858
G1 X89.875 Y117.075 E20.00466
G1 X89.48 Y116.632 E20.0323
G1 X89.162 Y116.186 E20.05781
G1 X88.875 Y115.668 E20.08538
G1 X88.664 Y115.164 E20.11082
G1 X88.499 Y114.598 E20.13828
G1 X88.399 Y114.029 E20.16518
G1 X88.363 Y113.468 E20.19135
G1 X88.391 Y112.89 E20.2183
G1 X88.479 Y112.338 E20.24433
G1 X88.634 Y111.776 E20.27147
G1 X88.844 Y111.253 E20.29772
G1 X89.119 Y110.738 E20.3249
G1 X89.439 Y110.274 E20.35115
G1 X89.816 Y109.839 E20.37795
G1 X90.237 Y109.449 E20.40467
G1 X90.694 Y109.111 E20.43114
G1 X91.766 Y108.492 E20.48878
G1 X91.246 Y106.213 E20.59763
G1 X90.012 Y106.121 E20.65525
G1 X89.452 Y106.015 E20.68179
G1 X88.906 Y105.848 E20.70838
G1 X88.379 Y105.62 E20.73511
G1 X87.882 Y105.334 E20.76181
G1 X87.419 Y104.997 E20.78848
G1 X86.995 Y104.61 E20.81521
G1 X86.625 Y104.186 E20.84141
G1 X86.291 Y103.707 E20.8686
G1 X86.022 Y103.208 E20.895
G1 X85.809 Y102.686 E20.92125
G1 X85.649 Y102.118 E20.94873
G1 X85.558 Y101.571 E20.97455
G1 X85.529 Y100.994 E21.00145
G1 X85.561 Y100.419 E21.02827
G1 X85.658 Y99.855 E21.05492
G1 X85.814 Y99.314 E21.08113
G1 X86.033 Y98.781 E21.10797
G1 X86.311 Y98.272 E21.13497
G1 X86.638 Y97.808 E21.1614
G1 X87.015 Y97.382 E21.18789
G1 X87.436 Y97 E21.21436
G1 X87.904 Y96.662 E21.24124
G1 X88.408 Y96.377 E21.26821
G1 X88.921 Y96.159 E21.29416
G1 X89.477 Y95.991 E21.32121
G1 X90.033 Y95.889 E21.34753
G1 X90.603 Y95.848 E21.37414
G1 X91.18 Y95.872 E21.40103
G1 X91.755 Y95.96 E21.42811
G1 X92.288 Y96.102 E21.4538
G1 X93.451 Y96.556 E21.51193
G1 X94.907 Y94.729 E21.62072
G1 X94.211 Y93.706 E21.67833
G1 X93.943 Y93.199 E21.70503
G1 X93.732 Y92.663 E21.73186
G1 X93.584 Y92.121 E21.75802
G1 X93.497 Y91.559 E21.7845
G1 X93.472 Y90.972 E21.81186
G1 X93.51 Y90.415 E21.83785
G1 X93.614 Y89.842 E21.86497
G1 X93.776 Y89.3 E21.89131
G1 X94.001 Y88.769 E21.91817
G1 X94.283 Y88.267 E21.94498
G1 X94.606 Y87.817 E21.97077
G1 X94.999 Y87.382 E21.99807
G1 X95.423 Y87.004 E22.02452
G1 X95.891 Y86.674 E22.05118
G1 X96.391 Y86.399 E22.07775
G1 X96.919 Y86.179 E22.10439
G1 X97.469 Y86.02 E22.13105
G1 X98.04 Y85.921 E22.15803
G1 X98.599 Y85.887 E22.18411
G1 X99.177 Y85.916 E22.21106
G1 X99.742 Y86.008 E22.23771
G1 X100.285 Y86.16 E22.26397
G1 X100.821 Y86.376 E22.29088
G1 X101.33 Y86.65 E22.3178
G1 X101.794 Y86.97 E22.34404
G1 X102.23 Y87.349 E22.37094
G1 X102.608 Y87.761 E22.39698
G1 X102.955 Y88.233 E22.42425
G1 X103.237 Y88.724 E22.45062
G1 X103.466 Y89.248 E22.47725
G1 X103.831 Y90.432 E22.53494
G1 X106.169 Y90.432 E22.64381
G1 X106.534 Y89.248 E22.7015
G1 X106.763 Y88.724 E22.72813
G1 X107.045 Y88.233 E22.75449
G1 X107.392 Y87.761 E22.78177
G1 X107.77 Y87.349 E22.80781
G1 X108.206 Y86.97 E22.83471
G1 X108.67 Y86.65 E22.86095
G1 X109.179 Y86.376 E22.88787
G1 X109.715 Y86.16 E22.91478
G1 X110.258 Y86.008 E22.94104
G1 X110.823 Y85.916 E22.96769
G1 X111.401 Y85.887 E22.99464
G1 X111.96 Y85.921 E23.02072
G1 X112.531 Y86.02 E23.0477
G1 X113.081 Y86.179 E23.07436
G1 X113.609 Y86.399 E23.10099
G1 X114.109 Y86.674 E23.12757
G1 X114.577 Y87.004 E23.15423
G1 X115.001 Y87.382 E23.18068
G1 X115.394 Y87.817 E23.20798
G1 X115.717 Y88.267 E23.23377
G1 X115.999 Y88.769 E23.26058
G1 X116.224 Y89.3 E23.28744
G1 X116.386 Y89.842 E23.31378
G1 X116.49 Y90.415 E23.34089
G1 X116.528 Y90.972 E23.36689
G1 X116.503 Y91.559 E23.39425
G1 X116.416 Y92.121 E23.42073
G1 X116.268 Y92.663 E23.44689
G1 X116.057 Y93.199 E23.47371
G1 X115.789 Y93.706 E23.50042
G1 X115.093 Y94.729 E23.55803
G1 X116.549 Y96.556 E23.66682
G1 X117.712 Y96.102 E23.72495
G1 X118.245 Y95.96 E23.75063
G1 X118.82 Y95.872 E23.77772
G1 X119.397 Y95.848 E23.80461
G1 X119.967 Y95.889 E23.83122
G1 X120.523 Y95.991 E23.85754
G1 X121.079 Y96.159 E23.88459
G1 X121.592 Y96.377 E23.91054
G1 X122.096 Y96.662 E23.9375
G1 X122.564 Y97 E23.96439
G1 X122.985 Y97.382 E23.99086
G1 X123.362 Y97.808 E24.01734
G1 X123.689 Y98.272 E24.04378
G1 X123.967 Y98.781 E24.07078
G1 X124.186 Y99.314 E24.09761
G1 X124.342 Y99.855 E24.12383
G1 X124.439 Y100.419 E24.15048
G1 X124.471 Y100.994 E24.1773
G1 X124.442 Y101.571 E24.2042
G1 X124.351 Y102.118 E24.23002
G1 X124.191 Y102.686 E24.2575
G1 X123.978 Y103.208 E24.28375
G1 X123.709 Y103.707 E24.31014
G1 X123.375 Y104.186 E24.33734
G1 X123.005 Y104.61 E24.36354
G1 X122.581 Y104.997 E24.39027
G1 X122.118 Y105.334 E24.41694
G1 X121.621 Y105.62 E24.44364
G1 X121.094 Y105.848 E24.47037
G1 X120.548 Y106.015 E24.49696
G1 X119.988 Y106.121 E24.5235
G1 X118.754 Y106.213 E24.58112
M204 S3000
M205 X10 Y10
G0 F3000 X118.689 Y106.138
G0 X111.368 Y97.905
G0 X99.22 Y97.833
G0 X99.22 Y98.493
M204 S1800
M205 X8 Y8
;TYPE:WALL-OUTER
G1 F1500 X99.22 Y110.053 E25.1194
G1 X110.78 Y110.053 E25.65768
G1 X110.78 Y98.493 E26.19596
G1 X99.22 Y98.493 E26.73425
M204 S3000
M205 X10 Y10
G0 F3000 X99.22 Y98.693
G0 X98.56 Y98.693
G0 X98.624 Y97.984
G0 X103.614 Y90.066
G0 X104.244 Y89.872
M204 S1800
M205 X8 Y8
G1 F1500 X105.756 Y89.872 E26.80465
G1 X106.008 Y89.054 E26.84451
G1 X106.261 Y88.474 E26.87397
G1 X106.578 Y87.923 E26.90357
G1 X106.958 Y87.406 E26.93345
G1 X107.38 Y86.947 E26.96248
G1 X107.863 Y86.526 E26.99232
G1 X108.375 Y86.173 E27.02128
G1 X108.942 Y85.868 E27.05125
G1 X109.531 Y85.63 E27.08084
G1 X110.145 Y85.459 E27.11051
G1 X110.759 Y85.359 E27.13948
G1 X111.406 Y85.326 E27.16965
G1 X112.026 Y85.364 E27.19857
G1 X112.657 Y85.473 E27.22839
G1 X113.265 Y85.649 E27.25786
G1 X113.856 Y85.895 E27.28767
G1 X114.401 Y86.195 E27.31664
G1 X114.93 Y86.569 E27.34681
G1 X115.395 Y86.982 E27.37576
G1 X115.829 Y87.463 E27.40593
G1 X116.192 Y87.969 E27.43493
G1 X116.503 Y88.522 E27.46447
G1 X116.753 Y89.112 E27.49431
G1 X116.931 Y89.709 E27.52332
G1 X117.047 Y90.348 E27.55356
G1 X117.089 Y90.967 E27.58245
G1 X117.062 Y91.606 E27.61223
G1 X116.964 Y92.238 E27.64201
G1 X116.799 Y92.845 E27.6713
G1 X116.569 Y93.428 E27.70048
G1 X116.268 Y93.998 E27.7305
G1 X115.788 Y94.703 E27.77021
G1 X116.73 Y95.884 E27.84055
G1 X117.534 Y95.57 E27.88075
G1 X118.133 Y95.41 E27.90962
G1 X118.766 Y95.313 E27.93943
G1 X119.405 Y95.287 E27.96921
G1 X120.035 Y95.332 E27.99862
G1 X120.653 Y95.445 E28.02788
G1 X121.268 Y95.631 E28.0578
G1 X121.841 Y95.875 E28.0868
G1 X122.401 Y96.192 E28.11676
G1 X122.916 Y96.564 E28.14634
